X: 4
T: The Lansdowne Lass
R: reel
M: 4/4
L: 1/8
K: Gmaj
|:GAB2 gedB|GAB2 GBAG|EGDG GFGA|Bdeg dBAB|
GAB2 gedB|GAB2 GBAG|EGDG GFG2|Bdeg dBG2:|
|:GABG GGdG|GGg2 fged|Bdg2 fged|Bdea aga2|
gab2 abag|edg2 fged|BGDG GGGA|Bdge dBG2:|

